!!!!SEGMENT: pl-sa--l-1636--048_anonim-keyboard-piece.krn
!!!id: 17xx:755
!!!COM: Anonim
!!!OTL: Keyboard piece
!!!PDT:
!!!SMS-siglum: PL-SA
!!!SMS-shelfmark: L 1636
!!!NIFC-rismID: 1001076554
!!!URL-scan: http://repozytorium.nifc.pl/skany/pl-sa-nut--l1636
!!!ONB-nifc: 13v, skan 0017, s. 4
!!!SMS-variant:
!!!SMS-altvar:
**kern	**kern
*part2	*part1
*staff2	*staff1
*I'keyb	*
*clefF4	*clefC1
*k[]	*k[]
*M3/4	*M3/4
=1	=1
*^	*
*2\right	*2\right	*2\right
!LO:TX:a:t=P:problem:wszystkie caudy z prawej	!	!LO:TX:a:t=P:problem:wszystkie caudy z prawej
2.c/	2.A\	8ee\L
.	.	8dd\
.	.	8cc\
.	.	8ee\
.	.	8dd\
.	.	8cc\J
*v	*v	*
=2	=2
*	*^
8B\L	2.dd/	2.b\
8A\	.	.
8G#X\	.	.
8B\	.	.
8A\	.	.
!LO:TX:a:t=P:problem:# above	!	!
8G#X\J	.	.
*	*v	*v
=3	=3
8A\L	8cc\L
8G\	8b\
8F\	8a\
8A\	8cc\
8G\	8b\
8F\J	8a\J
=4	=4
*	*^
!LO:TX:a:t=P:problem:# above	!	!
8G#X\L	2.dd/	2.b\
8A\	.	.
8B\	.	.
8G#\	.	.
8A\	.	.
8B\J	.	.
*	*v	*v
=5	=5
*^	*
2.c/	2.C\	8ee\L
.	.	8dd\
.	.	8ee\
.	.	8cc\
.	.	8dd\
.	.	8ee\J
=6	=6	=6
2.B/	2.G\	8dd\L
.	.	8cc\
.	.	8dd\
.	.	8b\
.	.	8cc\
.	.	8dd\J
=7	=7	=7
2.A/	2.AA/	8cc\L
.	.	8b\
.	.	8cc\
.	.	8a\
.	.	8b\
.	.	8cc\J
=8	=8	=8
*	*	*^
!	!LO:N:vis=2	!.	!LO:N:vis=2.
8B/L	2.E\	4g/	2e\
8c/J	.	.	.
2B/	.	4.a/	.
.	.	.	8ryy
.	.	8g#X/	8d\
*v	*v	*	*
=9	=9	=9
!LO:N:n=2:vis=2	!	!
!LO:N:n=3:vis=2	!	!
2.AA/ 2.C 2.E 2.A	2.e/ 2.a	2.c\
*	*v	*v
==	==
*-	*-
!!!system-decoration: [(s1,s2)]
!!!RDF**kern: > = above
!!!RDF**kern: < = below
!!!ENC:Andrzej Borzym
!!!END:2020-06-11
!!!EED: Mateusz Mrugas
!!!EST: 2020-12-08
